styles/3/Numix/22/places/pink-user-desktop.svg

<?xml version="1.0" encoding="UTF-8" standalone="no"?>
<!-- Created with Inkscape (http://www.inkscape.org/) -->

<svg
   xmlns:dc="http://purl.org/dc/elements/1.1/"
   xmlns:cc="http://creativecommons.org/ns#"
   xmlns:rdf="http://www.w3.org/1999/02/22-rdf-syntax-ns#"
   xmlns:svg="http://www.w3.org/2000/svg"
   xmlns="http://www.w3.org/2000/svg"
   xmlns:sodipodi="http://sodipodi.sourceforge.net/DTD/sodipodi-0.dtd"
   xmlns:inkscape="http://www.inkscape.org/namespaces/inkscape"
   width="22"
   height="22"
   id="svg2"
   version="1.1"
   inkscape:version="0.91 r"
   sodipodi:docname="pink-user-desktop.svg"
   inkscape:export-filename="/media/Data/Main/Visuals/Icons/Numix/Desktop/repos/numix-wiki/Gjorgi/Numix-folders/48/New/folder-144.png"
   inkscape:export-xdpi="270"
   inkscape:export-ydpi="270">
  <defs
     id="defs4" />
  <sodipodi:namedview
     id="base"
     pagecolor="#ffffff"
     bordercolor="#666666"
     borderopacity="1.0"
     inkscape:pageopacity="0.0"
     inkscape:pageshadow="2"
     inkscape:zoom="21.113937"
     inkscape:cx="-6.6209596"
     inkscape:cy="5.9392321"
     inkscape:document-units="px"
     inkscape:current-layer="layer1"
     showgrid="true"
     inkscape:window-width="1280"
     inkscape:window-height="998"
     inkscape:window-x="0"
     inkscape:window-y="0"
     inkscape:window-maximized="1"
     showguides="true"
     inkscape:guide-bbox="true">
    <inkscape:grid
       type="xygrid"
       id="grid2985"
       empspacing="5"
       visible="true"
       enabled="true"
       snapvisiblegridlinesonly="true" />
  </sodipodi:namedview>
  <metadata
     id="metadata7">
    <rdf:RDF>
      <cc:Work
         rdf:about="">
        <dc:format>image/svg+xml</dc:format>
        <dc:type
           rdf:resource="http://purl.org/dc/dcmitype/StillImage" />
        <dc:title />
      </cc:Work>
    </rdf:RDF>
  </metadata>
  <g
     inkscape:label="Layer 1"
     inkscape:groupmode="layer"
     id="layer1"
     transform="translate(0,-1030.3622)">
    <rect
       style="fill:#ec407a;fill-opacity:1;stroke:none"
       id="rect3757"
       width="20"
       height="5"
       x="0.99999905"
       y="1033.3622" />
    <path
       style="fill:#ec407a;fill-opacity:1;stroke:none"
       d="m 3.9999992,1034.3622 c 0,-1 0,-2 0.909091,-2 l 3.1818188,0 c 0.90909,0 0.90909,1 0.90909,2 z"
       id="path3759"
       inkscape:connector-curvature="0"
       sodipodi:nodetypes="ccccc" />
    <path
       style="fill:#95989f;fill-opacity:1;stroke:none"
       d="m 2,1034.3622 17.999998,0 0,4 -17.999998,0 z"
       id="path3765"
       inkscape:connector-curvature="0" />
    <rect
       y="1034.3622"
       x="4.999999"
       height="6"
       width="14"
       id="rect3763"
       style="fill:#d8d8da;fill-opacity:1;stroke:none" />
    <rect
       style="fill:#f9f9f9;fill-opacity:1;stroke:none"
       id="rect3761"
       width="14"
       height="3.0000174"
       x="3"
       y="1035.3622" />
    <path
       style="fill:#f06292;fill-opacity:1;stroke:none"
       d="m 0,1036.3622 21.999999,0 -1,14 -19.9999994,0 z"
       id="path2987"
       inkscape:connector-curvature="0"
       sodipodi:nodetypes="ccccc" />
    <path
       style="opacity:1.0;fill:#c64077;fill-opacity:1;stroke:none"
       d="M 6 8 C 5.446 8 5 8.446 5 9 L 5 15 C 5 15.554 5.446 16 6 16 L 9 16 L 7 17 C 5 18 6 18 7 18 L 15 18 C 16 18 17 18 15 17 L 13 16 L 16 16 C 16.554 16 17 15.554 17 15 L 17 9 C 17 8.446 16.554 8 16 8 L 6 8 z M 7 9 L 15 9 C 15.554 9 16 9.446 16 10 L 16 13.90625 C 16 14.46025 15.554 15 15 15 L 13 15 L 9 15 L 7 15 C 6.446 15 6 14.46025 6 13.90625 L 6 10 C 6 9.446 6.446 9 7 9 z M 8 10 L 8 14 L 12 14 L 12 10 L 8 10 z M 9 11 L 10 12 L 11 13 L 9 13 L 9 11 z "
       transform="translate(0,1030.3622)"
       id="path3838" />
  </g>
</svg>

<!-- Created with Inkscape (http://www.inkscape.org/) -->
<svg xmlns="http://www.w3.org/2000/svg" viewBox="0 0 22 22">
 <g transform="translate(0,-1030.3622)">
  <rect width="20" height="5" x="1" y="1033.36" style="fill:#ec407a;fill-opacity:1;stroke:none"/>
  <path d="m 4 1034.36 c 0 -1 0 -2 0.909 -2 l 3.182 0 c 0.909 0 0.909 1 0.909 2 z" style="fill:#ec407a;fill-opacity:1;stroke:none"/>
  <path d="m 2 1034.36 18 0 0 4 -18 0 z" style="fill:#95989f;fill-opacity:1;stroke:none"/>
  <rect y="1034.36" x="5" height="6" width="14" style="fill:#d8d8da;fill-opacity:1;stroke:none"/>
  <rect width="14" height="3" x="3" y="1035.36" style="fill:#f9f9f9;fill-opacity:1;stroke:none"/>
  <path d="m 0 1036.36 22 0 -1 14 -20 0 z" style="fill:#f06292;fill-opacity:1;stroke:none"/>
  <path d="m 6 8 c -0.554 0 -1 0.446 -1 1 l 0 6 c 0 0.554 0.446 1 1 1 l 3 0 l -2 1 c -2 1 -1 1 0 1 l 8 0 c 1 0 2 0 0 -1 l -2 -1 l 3 0 c 0.554 0 1 -0.446 1 -1 l 0 -6 c 0 -0.554 -0.446 -1 -1 -1 l -10 0 z m 1 1 l 8 0 c 0.554 0 1 0.446 1 1 l 0 3.906 c 0 0.554 -0.446 1.094 -1 1.094 l -2 0 l -4 0 l -2 0 c -0.554 0 -1 -0.54 -1 -1.094 l 0 -3.906 c 0 -0.554 0.446 -1 1 -1 z m 1 1 l 0 4 l 4 0 l 0 -4 l -4 0 z m 1 1 l 1 1 l 1 1 l -2 0 l 0 -2 z" transform="translate(0,1030.3622)" style="fill:#c64077;opacity:1;fill-opacity:1;stroke:none"/>
 </g>
</svg>
